logos/morpheus.svg

<?xml version="1.0" encoding="UTF-8"?>
<svg width="512px" height="106px" viewBox="0 0 512 106" version="1.1" xmlns="http://www.w3.org/2000/svg" xmlns:xlink="http://www.w3.org/1999/xlink" preserveAspectRatio="xMidYMid">
    <g>
        <path d="M507.629759,36.761742 C511.644623,40.0091775 507.393836,45.1460611 503.850867,42.5483237 C499.481388,39.7732422 489.561749,38.4743695 488.322015,44.6146164 C486.727617,54.2982836 512.412518,48.7481487 511.999243,64.4538575 C511.585964,79.4517523 489.857311,79.805917 481.708939,73.0746113 C479.760364,71.4806886 479.819467,68.8824517 480.882384,67.2880536 C482.41724,65.7532456 484.129844,65.2217769 486.137034,66.8748023 C490.978843,70.1813524 503.437644,72.6613719 504.323249,64.2770528 C503.555841,55.5380577 478.992956,60.7931547 480.823277,44.0244924 C482.181265,32.5695705 499.481388,30.5027904 507.629759,36.761742 Z M468.894108,39.0644295 L468.894108,60.438982 C468.894108,82.5218359 433.289516,82.5218359 433.289516,60.438982 L433.289516,39.0644295 C433.289516,33.7507013 441.02466,33.5142945 441.02466,39.0644295 L441.02466,60.438982 C441.02466,72.0707366 461.158963,72.7795373 461.158963,60.438982 L461.158963,39.0644295 C461.158963,33.8093286 468.894108,33.3960772 468.894108,39.0644295 Z M225.088386,33.6916146 C235.421255,34.2226079 246.226503,41.367145 246.226503,55.3612131 C246.226503,69.3547818 235.421255,76.6175362 225.088386,76.6175362 C214.164908,77.0899182 202.8282,69.8271398 202.8282,55.3612131 C202.8282,40.8356842 214.164908,33.6916146 225.088386,33.6916146 Z M277.108657,35.1673199 C292.106297,35.1673199 295.176428,55.2429837 282.659036,60.261662 L290.511898,69.8271518 C293.582246,74.3739394 287.441527,78.7429396 283.898798,74.2557221 L274.983022,61.5019234 L265.712826,61.5019234 L265.712826,72.1889659 C265.712826,77.3258496 257.859744,77.5031696 257.859744,72.3071713 L257.859744,38.7693835 C257.859744,36.7026154 259.454142,35.1673199 261.402693,35.1673199 L277.108657,35.1673199 Z M154.763205,34.6363346 C156.475577,34.6363346 157.479404,35.6401494 158.48323,36.761726 L171.472988,54.2982677 L184.935576,36.112052 C186.883895,33.6916345 191.666626,34.6363346 191.666626,38.7103008 L191.666626,71.9530306 C191.666626,74.5507921 190.013345,76.0269728 188.123909,76.0269728 C185.998258,76.0269728 184.344989,74.5507681 184.344989,71.9530306 L184.344989,50.1061121 L174.543567,62.5057581 C172.417685,65.1035076 169.760824,65.1035076 167.812262,62.5057581 L159.014491,50.1061121 L159.014491,71.9530306 C159.014491,74.5507921 156.888856,76.0269728 154.763205,76.0269728 C152.873757,76.0269728 151.220488,74.5507681 151.220488,71.9530306 L151.220488,38.7102888 C151.220488,35.6401733 153.818481,34.6363346 154.763205,34.6363346 Z M319.918059,34.6363386 C327.594077,34.6363386 334.502204,39.7732222 334.502204,49.6337341 C334.502204,58.9627773 327.594077,64.1587875 319.918059,64.1587875 L310.057304,64.1587875 L310.057304,71.9530106 C310.057304,74.5507721 308.404047,76.0269529 306.278384,76.0269529 C304.330053,76.0269529 302.263301,74.5507601 302.263301,71.9530106 L302.263301,38.7102928 C302.263301,36.761742 303.79862,34.6363386 306.278384,34.6363386 L319.918059,34.6363386 Z M376.308031,35.167308 C378.374811,35.167308 379.969209,36.7026034 379.969209,38.8284982 L379.969209,72.366274 C379.969209,74.4325508 378.374811,76.0269768 376.308031,76.0269768 C374.182639,76.0269768 372.293191,74.4325547 372.293191,72.366274 L372.293191,59.4351553 L353.044497,59.4351553 L353.044497,72.366286 C353.044497,74.4325627 351.509202,76.0269768 349.442422,76.0269768 C346.78557,76.0269768 345.250274,74.4325747 345.250274,72.366274 L345.250274,38.8284982 C345.250274,36.7026314 346.78557,35.167308 349.442422,35.167308 C351.509202,35.167308 353.044497,36.7026034 353.044497,38.8284982 L353.044497,51.7005022 L372.293191,51.7005022 L372.293191,38.8284982 C372.293191,36.7026314 374.182639,35.167308 376.308031,35.167308 Z M417.40556,35.167304 C422.837466,35.167304 422.719265,42.8433337 417.40556,42.8433337 L400.400487,42.8433337 L400.400487,51.7004982 L415.279678,51.7004982 C420.534767,51.7004982 420.534767,59.4351553 415.279678,59.4351553 L400.400487,59.4351553 L400.400487,68.2918404 L418.409375,68.2918404 C423.78223,68.2918404 424.195457,76.0269728 418.409375,76.0269728 L396.208292,76.0269728 C394.141536,76.0269728 392.547138,74.4325508 392.547138,72.36627 L392.547138,38.8284942 C392.547138,36.7026274 394.141536,35.167304 396.208292,35.167304 L417.40556,35.167304 Z M224.438723,41.3671529 C217.825647,41.3671529 210.622227,46.0321699 210.622227,55.3612091 C210.622227,64.6311496 217.825643,69.3547778 224.438723,69.3547778 C231.229108,69.3547778 238.491651,64.6311496 238.491651,55.3612091 C238.491651,46.0321579 231.229108,41.3671529 224.438723,41.3671529 Z M319.918059,42.0759457 L310.057304,42.0759457 L310.057304,56.7783071 L319.918059,56.7783071 C323.873796,56.7783071 327.003518,53.2944609 327.003518,49.6337461 C327.003518,45.5006892 323.8738,42.0759457 319.918059,42.0759457 Z M277.108661,42.311869 L265.712826,42.311869 L265.712826,54.711527 L277.108661,54.711527 C284.784411,54.711527 285.25679,42.311869 277.108661,42.311869 Z" fill="#3DB5E6"></path>
        <g>
            <path d="M104.382972,66.1663771 C98.6264388,89.2936166 77.5643416,105.747674 52.7579069,105.747674 C27.8391511,105.747674 6.95836064,88.3197067 1.43773107,65.0970241 C8.07599848,65.0970241 14.2818117,65.1273564 17.1628904,65.1273564 C18.5219844,65.1273564 18.7859231,65.1509335 18.8645602,65.1453129 C21.0323801,65.0386045 23.7506,64.3231085 25.5589742,59.9256775 L32.4499749,41.8996163 L47.7539254,78.7467227 C49.1298773,81.68394 51.4268922,81.4758882 52.7971915,81.4758882 L52.9263864,81.4758882 C55.5996651,81.4758882 56.7622122,80.5391138 57.7787303,78.6015486 L75.0651551,42.1758989 L80.9620844,58.5921422 L81.3215262,59.3869783 C82.5682911,62.1220241 83.4651817,64.8235658 86.5506771,65.176596 C87.186721,65.2493648 94.5730058,65.1203336 104.530395,65.1203336 C104.530395,65.1203336 104.530395,65.184202 104.382972,66.1663771 Z" fill="#3DB5E6"></path>
            <path d="M106.071802,52.5451572 C106.071802,52.8203452 106.071802,53.5124717 106.066182,53.5124717 L106.05494,53.5124717 L90.1615371,53.5124717 L80.8890719,27.6105062 C80.063524,25.6841824 78.8223438,22.7963564 75.2055515,22.7963564 C72.9927983,22.7963564 70.993458,24.6238256 69.8589862,27.6396801 L53.0499208,66.574619 L36.8698606,27.8758591 C35.2861085,24.4387917 34.1909892,22.8223264 31.0234852,22.8223264 C28.8724992,22.8223264 27.2943718,23.6146738 25.5758361,27.686359 L15.9722681,53.8970645 L0.016829982,53.8803624 C0.00558868853,53.4816041 0,53.0829456 0,52.6841873 C0,23.5477094 23.621433,0 52.7579029,0 C81.8943727,0 106.071802,23.4086913 106.071802,52.5451572 Z" fill="#D8292F"></path>
        </g>
    </g>
</svg>

<svg preserveAspectRatio="xMidYMid" viewBox="0 0 512 106" xmlns="http://www.w3.org/2000/svg">
  <path fill="#3DB5E6" d="M507.63 36.762c4.015 3.247-.236 8.384-3.78 5.786-4.369-2.775-14.288-4.074-15.528 2.067-1.594 9.683 24.09 4.133 23.677 19.839-.413 14.998-22.142 15.352-30.29 8.62-1.949-1.593-1.89-4.192-.827-5.786 1.535-1.535 3.248-2.066 5.255-.413 4.842 3.306 17.3 5.786 18.186-2.598-.767-8.739-25.33-3.484-23.5-20.253 1.358-11.454 18.658-13.521 26.807-7.262Zm-38.736 2.302V60.44c0 22.083-35.604 22.083-35.604 0V39.064c0-5.313 7.735-5.55 7.735 0V60.44c0 11.632 20.134 12.34 20.134 0V39.064c0-5.255 7.735-5.668 7.735 0Zm-243.806-5.372c10.333.53 21.139 7.675 21.139 21.67 0 13.993-10.806 21.256-21.139 21.256-10.923.472-22.26-6.79-22.26-21.257 0-14.525 11.337-21.67 22.26-21.67Zm52.02 1.475c14.998 0 18.068 20.076 5.551 25.095l7.853 9.565c3.07 4.547-3.07 8.916-6.613 4.429l-8.916-12.754h-9.27v10.687c0 5.137-7.853 5.314-7.853.118V38.77c0-2.066 1.594-3.602 3.543-3.602h15.706Zm-122.345-.53c1.713 0 2.716 1.003 3.72 2.125l12.99 17.536 13.463-18.186c1.948-2.42 6.73-1.476 6.73 2.598v33.243c0 2.598-1.653 4.074-3.542 4.074-2.126 0-3.779-1.476-3.779-4.074V50.106l-9.801 12.4c-2.126 2.598-4.783 2.598-6.732 0l-8.798-12.4v21.847c0 2.598-2.125 4.074-4.25 4.074-1.89 0-3.544-1.476-3.544-4.074V38.71c0-3.07 2.598-4.074 3.543-4.074Zm165.155 0c7.676 0 14.584 5.136 14.584 14.997 0 9.329-6.908 14.525-14.584 14.525h-9.86v7.794c0 2.598-1.654 4.074-3.78 4.074-1.948 0-4.015-1.476-4.015-4.074V38.71c0-1.948 1.536-4.074 4.015-4.074h13.64Zm56.39.53c2.067 0 3.661 1.536 3.661 3.661v33.538c0 2.067-1.594 3.661-3.661 3.661-2.125 0-4.015-1.594-4.015-3.66V59.434h-19.249v12.931c0 2.067-1.535 3.661-3.602 3.661-2.656 0-4.192-1.594-4.192-3.66V38.827c0-2.125 1.536-3.66 4.192-3.66 2.067 0 3.602 1.535 3.602 3.66V51.7h19.25V38.828c0-2.125 1.889-3.66 4.014-3.66Zm41.098 0c5.431 0 5.313 7.676 0 7.676H400.4V51.7h14.88c5.255 0 5.255 7.735 0 7.735H400.4v8.857h18.01c5.372 0 5.785 7.735 0 7.735h-22.202c-2.066 0-3.66-1.594-3.66-3.66v-33.54c0-2.125 1.594-3.66 3.66-3.66h21.198Zm-192.967 6.2c-6.613 0-13.817 4.665-13.817 13.994 0 9.27 7.204 13.994 13.817 13.994 6.79 0 14.053-4.724 14.053-13.994 0-9.329-7.263-13.994-14.053-13.994Zm95.48.709h-9.862v14.702h9.861c3.956 0 7.086-3.484 7.086-7.144 0-4.133-3.13-7.558-7.086-7.558Zm-42.81.236h-11.396v12.4h11.396c7.675 0 8.148-12.4 0-12.4Z"/>
  <path fill="#3DB5E6" d="M104.383 66.166c-5.757 23.128-26.819 39.582-51.625 39.582-24.919 0-45.8-17.428-51.32-40.651 6.638 0 12.844.03 15.725.03 1.359 0 1.623.024 1.702.018 2.167-.106 4.886-.822 6.694-5.22L32.45 41.9l15.304 36.847c1.376 2.937 3.673 2.729 5.043 2.729h.13c2.673 0 3.835-.937 4.852-2.874l17.286-36.426 5.897 16.416.36.795c1.246 2.735 2.143 5.437 5.229 5.79.636.072 8.022-.057 17.98-.057 0 0 0 .064-.148 1.046Z"/>
  <path fill="#D8292F" d="M106.072 52.545c0 .275 0 .967-.006.967H90.162l-9.273-25.901c-.825-1.927-2.067-4.815-5.683-4.815-2.213 0-4.213 1.828-5.347 4.844l-16.81 38.935-16.18-38.7c-1.583-3.436-2.678-5.053-5.846-5.053-2.15 0-3.729.793-5.447 4.864l-9.604 26.211L.017 53.88A42.443 42.443 0 0 1 0 52.684C0 23.548 23.621 0 52.758 0c29.136 0 53.314 23.409 53.314 52.545Z"/>
</svg>
